X: 130
T:Maude Miller
M:C|
L:1/8
R:Reel
K:EMin
gf[|edBA GEDE|G2BG dGBd|eBdB ABGA|Beed efgf|!
edBA GEDE|G2BG dGBd|eBdB ABGA|Beed e2ge|]!
dega bg~g2|agef gage|dega bg~g2|aged eage|!
dega bg~g2|agef gfga|bgaf gfed|Beed efgf|]!
